X: 43072
T: Wind That Shakes The Barley, The
R: reel
M: 4/4
K: Dmajor
dB|:"D"~A3B AFED|"G"~B3A BcdB|"D"~A3B AFED|1 "Em"gfed "A7"BcdB:|2 "Em"gfed "A7"Bcde||
"D"~f3d "Em"g2ge|"D"~f3d "A7"Bcde|"D"~f3d "Em"~g3e|"D"afed "A7"Bcde|
"D"~f3d "Em"g2ge|"D"~f3d "A7"Bcde|"D"defg "Bm"afbf|"Em"afed "A7"Bcde||d8||

